assets/icons/qvision/save.svg

<svg xmlns="http://www.w3.org/2000/svg" height="24" viewBox="0 0 24 24" width="24"><path d="M0 0h24v24H0z" fill="none"/><path d="M17 3H5c-1.11 0-2 .9-2 2v14c0 1.1.89 2 2 2h14c1.1 0 2-.9 2-2V7l-4-4zm-5 16c-1.66 0-3-1.34-3-3s1.34-3 3-3 3 1.34 3 3-1.34 3-3 3zm3-10H5V5h10v4z"/></svg>

<svg width="24" height="24" viewBox="0 0 24 24" fill="none" xmlns="http://www.w3.org/2000/svg">
<g clip-path="url(#clip0_147_2249)">
<path d="M17 3H5C3.89 3 3 3.9 3 5V19C3 20.1 3.89 21 5 21H19C20.1 21 21 20.1 21 19V7L17 3ZM12 19C10.34 19 9 17.66 9 16C9 14.34 10.34 13 12 13C13.66 13 15 14.34 15 16C15 17.66 13.66 19 12 19ZM15 9H5V5H15V9Z" fill="#323232"/>
</g>
<defs>
<clipPath id="clip0_147_2249">
<rect width="24" height="24" fill="white"/>
</clipPath>
</defs>
</svg>
